img/decor/checkbox-on.svg

<svg width="24" height="20" viewBox="0 0 24 20" fill="none" xmlns="http://www.w3.org/2000/svg">
<path d="M6.68552 6.51304L4.09018 8.96522L11.2251 15.7391L24 3.62609L21.4047 1.16522L11.2251 10.8174L6.68552 6.51304Z" fill="white"/>
<path d="M19.2587 17.3913C19.2587 17.6219 19.1621 17.8431 18.9901 18.0062C18.8181 18.1693 18.5848 18.2609 18.3416 18.2609H2.75124C2.50802 18.2609 2.27475 18.1693 2.10277 18.0062C1.93078 17.8431 1.83416 17.6219 1.83416 17.3913V2.6087C1.83416 2.37807 1.93078 2.1569 2.10277 1.99382C2.27475 1.83074 2.50802 1.73913 2.75124 1.73913H18.2591L19.7081 0.356522C19.2932 0.126574 18.8221 0.00365521 18.3416 0H2.75124C2.02157 0 1.32178 0.274844 0.80582 0.764069C0.289862 1.25329 0 1.91683 0 2.6087V17.3913C0 18.0832 0.289862 18.7467 0.80582 19.2359C1.32178 19.7252 2.02157 20 2.75124 20H18.3416C19.0713 20 19.7711 19.7252 20.287 19.2359C20.803 18.7467 21.0929 18.0832 21.0929 17.3913V8.84348L19.2587 10.5826V17.3913Z" fill="white"/>
</svg>

<svg width="24" height="20" fill="none" xmlns="http://www.w3.org/2000/svg"><path d="M6.69 6.51l-2.6 2.46 7.14 6.77L24 3.63l-2.6-2.46-10.17 9.65-4.54-4.3z" fill="#fff"/><path d="M19.26 17.4c0 .22-.1.44-.27.6a.94.94 0 01-.65.26H2.75a.94.94 0 01-.65-.25.85.85 0 01-.27-.62V2.61c0-.23.1-.45.27-.62.17-.16.4-.25.65-.25h15.5L19.72.36A2.87 2.87 0 0018.34 0H2.75C2.02 0 1.32.27.81.76.29 1.26 0 1.92 0 2.61v14.78c0 .7.29 1.36.8 1.85.52.49 1.22.76 1.95.76h15.6c.72 0 1.42-.27 1.94-.76.51-.5.8-1.16.8-1.85V8.84l-1.83 1.74v6.81z" fill="#fff"/></svg>
